svg/u27b0.svg

<svg viewBox="0 0 128 128" xmlns="http://www.w3.org/2000/svg">
  <path d="M5.17,40.07c0,0,0.26,3.02,1.97,3.41s9.57-2.75,19.27-2.88c9.7-0.13,16.12,1.57,16.12,1.57l6.82-6.95 L8.97,36.27L5.17,40.07z" fill="#464C4F"/>
  <path d="M27.72,71.06c0,0-2.1,15.02,7.86,27.87c5.96,7.69,15.92,14.03,27.53,14.16 c15.98,0.17,26.31-7.6,31.72-16.12c7.11-11.19,6.11-24.61,5.96-25.67c-0.28-1.89-6.74,0.24-6.74,0.24L80.94,92.11l-24.12,4.98 c0,0-19.4-10.23-20.06-12.06C36.11,83.2,27.72,71.06,27.72,71.06z" fill="#464C4F"/>
  <path d="M123.81,21.98c-0.66-0.66-12.39-4.06-31.4-2.36c-19.32,1.73-29.3,7.47-29.3,7.47 s-15.08-8.52-32.25-8.78C13.69,18.05,5.3,23.03,4.51,23.81c-0.59,0.59,0.66,16.26,0.66,16.26s10.74-3.14,21.11-3.02 c11.01,0.13,17.17,2.49,17.17,2.49s-14.63,9.65-15.8,32.51c-0.92,17.96,13.95,35,36.05,35.39c22.15,0.39,37.02-17.93,37.08-35.36 c0.06-14.95-13.95-30.97-13.95-30.97l36.45-3.31c0,0,1.06-4.14,1.18-8.36C124.54,26.56,124.46,22.63,123.81,21.98z M64.13,93.2 c-7.42-0.12-17.77-6.75-17.05-20.19C48,55.73,65.75,47.5,65.75,47.5s16.47,11.14,16.82,24.36C83.03,89.37,71.55,93.32,64.13,93.2z" fill="#606265"/>
  <path d="M123.29,37.81c0,0-0.58,3.31-2.32,3.89s-21.79-1.07-34.92,0.93c-9.45,1.43-21.5,5.2-26.33,9.28 C47.77,62,47.07,72.99,47.07,72.99s-0.72-16.65,16.59-26.77c12.85-7.51,28.89-8.7,39.91-8.93 C114.01,37.07,123.29,37.81,123.29,37.81z" fill="#464C4F"/>
  <path d="M7.15,27.74c-0.64,1.91,0,7.38,3.25,7.38c2.29,0,2.42-3,7.31-5.83c4.73-2.73,7.09-3.25,6.65-5.69 s-6.74-2-10.63-0.74C10.98,23.76,7.81,25.75,7.15,27.74z" fill="#9B9A9B"/>
  <path d="M89.46,24.58c-0.15,2.14,1.98,3.01,4.29,2.88c3.22-0.18,4.23-1.24,4.29-3.05 c0.06-1.58-1.91-2.5-4.46-2.37C91.33,22.15,89.58,22.94,89.46,24.58z" fill="#9B9A9B"/>
  <path d="M78.08,24.7c-1.79,0.4-14.21,3.66-25.68,11.8c-8.53,6.05-13.02,12.17-14.58,15.67 c-1.19,2.68-1.49,4.66-0.1,5.75c0.87,0.68,2.53,0.11,3.57-1.49c1.49-2.28,6.15-10.41,15.77-16.46c12.47-7.84,20.18-9.41,22.11-10.01 c3.17-0.99,4.36-2.08,4.26-3.87C83.34,24.3,81.16,24.01,78.08,24.7z" fill="#9B9A9B"/>
  <path d="M85.62,86.65c-2.55-1.12-4.14,3.2-6.93,5.78c-2.44,2.25-7.2,3.15-6.81,5.46 c0.45,2.63,5,1.78,9.76-2.38C86.71,91.08,87.68,87.55,85.62,86.65z" fill="#9B9A9B"/>
</svg>

<svg viewBox="0 0 128 128" xmlns="http://www.w3.org/2000/svg">
  <defs/>
  <path d="M5.17,40.07 C5.17,40.07 5.43,43.09 7.14,43.48 C8.85,43.87 16.71,40.73 26.41,40.6 C36.11,40.47 42.53,42.17 42.53,42.17 L49.35,35.22 L8.97,36.27 L5.17,40.07 Z" fill="#464C4F"/>
  <path d="M27.72,71.06 C27.72,71.06 25.62,86.08 35.58,98.93 C41.54,106.62 51.5,112.96 63.11,113.09 C79.09,113.26 89.42,105.49 94.83,96.97 C101.94,85.78 100.94,72.36 100.79,71.3 C100.51,69.41 94.05,71.54 94.05,71.54 L80.94,92.11 L56.82,97.09 C56.82,97.09 37.42,86.86 36.76,85.03 C36.11,83.2 27.72,71.06 27.72,71.06 Z" fill="#464C4F"/>
  <path d="M123.81,21.98 C123.15,21.32 111.42,17.92 92.41,19.62 C73.09,21.35 63.11,27.09 63.11,27.09 C63.11,27.09 48.03,18.57 30.86,18.31 C13.69,18.05 5.3,23.03 4.51,23.81 C3.92,24.4 5.17,40.07 5.17,40.07 C5.17,40.07 15.91,36.93 26.28,37.05 C37.29,37.18 43.45,39.54 43.45,39.54 C43.45,39.54 28.82,49.19 27.65,72.05 C26.73,90.01 41.6,107.05 63.7,107.44 C85.85,107.83 100.72,89.51 100.78,72.08 C100.84,57.13 86.83,41.11 86.83,41.11 L123.28,37.8 C123.28,37.8 124.34,33.66 124.46,29.44 C124.54,26.56 124.46,22.63 123.81,21.98 Z M64.13,93.2 C56.71,93.08 46.36,86.45 47.08,73.01 C48,55.73 65.75,47.5 65.75,47.5 C65.75,47.5 82.22,58.64 82.57,71.86 C83.03,89.37 71.55,93.32 64.13,93.2 Z" fill="#606265"/>
  <path d="M123.29,37.81 C123.29,37.81 122.71,41.12 120.97,41.7 C119.23,42.28 99.18,40.63 86.05,42.63 C76.6,44.06 64.55,47.83 59.72,51.91 C47.77,62 47.07,72.99 47.07,72.99 C47.07,72.99 46.35,56.34 63.66,46.22 C76.51,38.71 92.55,37.52 103.57,37.29 C114.01,37.07 123.29,37.81 123.29,37.81 Z" fill="#464C4F"/>
  <path d="M7.15,27.74 C6.51,29.65 7.15,35.12 10.4,35.12 C12.69,35.12 12.82,32.12 17.71,29.29 C22.44,26.56 24.8,26.04 24.36,23.6 C23.92,21.16 17.62,21.6 13.73,22.86 C10.98,23.76 7.81,25.75 7.15,27.74 Z" fill="#9B9A9B"/>
  <path d="M89.46,24.58 C89.31,26.72 91.44,27.59 93.75,27.46 C96.97,27.28 97.98,26.22 98.04,24.41 C98.1,22.83 96.13,21.91 93.58,22.04 C91.33,22.15 89.58,22.94 89.46,24.58 Z" fill="#9B9A9B"/>
  <path d="M78.08,24.7 C76.29,25.1 63.87,28.36 52.4,36.5 C43.87,42.55 39.38,48.67 37.82,52.17 C36.63,54.85 36.33,56.83 37.72,57.92 C38.59,58.6 40.25,58.03 41.29,56.43 C42.78,54.15 47.44,46.02 57.06,39.97 C69.53,32.13 77.24,30.56 79.17,29.96 C82.34,28.97 83.53,27.88 83.43,26.09 C83.34,24.3 81.16,24.01 78.08,24.7 Z" fill="#9B9A9B"/>
  <path d="M85.62,86.65 C83.07,85.53 81.48,89.85 78.69,92.43 C76.25,94.68 71.49,95.58 71.88,97.89 C72.33,100.52 76.88,99.67 81.64,95.51 C86.71,91.08 87.68,87.55 85.62,86.65 Z" fill="#9B9A9B"/>
</svg>
